!!!COM: Haydn, Franz Joseph
!!!CDT: 1732/03/31/-1809/05/31/
!!!CNT: Austrian
!!!OTL: Sonata No. 52 in G major
!!!SCT: Hob. XVI:39
!!!OMV: Mvmt. 3
!!!OMD: Prestissimo
!!!ODT: ~1779///
!!!SMS: Universal Edition 3, Haydn Piano Sonatas, Vol. 3, No. 24
!!!ONB: Stich und Druck von Jos. Eberle & Co. Wien VII. Seidengasse 3-9
**kern	**kern	**dynam
*staff2	*staff1	*staff1/2
*>[A,A,B,B]	*>[A,A,B,B]	*>[A,A,B,B]
*>norep[A,B]	*>norep[A,B]	*>norep[A,B]
*>A	*>A	*>A
*clefF4	*clefG2	*clefG2
*k[f#]	*k[f#]	*k[f#]
*G:	*G:	*G:
*M6/8	*M6/8	*M6/8
*MM180	*MM180	*MM180
=1-	=1-	=1-
4G`\ 4B`\	8r	.
.	8gg\L	p
8r	8g\J	.
4c`\ 4e`\	8r	.
.	(16gg\LL	.
.	16aa\J	.
8r	8gg`\J)	.
=2	=2	=2
4B`\ 4d`\	8r	.
.	8gg\L	.
8r	8g\J	.
4A`\ 4c`\	8r	.
.	(16gg\LL	.
.	16aa\J	.
8r	8gg`\J)	.
=3	=3	=3
4G`\ 4B`\	8r	.
.	8gg\L	.
8r	8g\J	.
4.BB\ 4.B\	8r	.
.	(16ff#\LL	f
.	16gg\	.
.	16bb\	.
.	16gg\JJ	.
=4	=4	=4
4.C\ 4.c\	8ee`\)	.
.	(16gg#\LL	.
.	16aa\	.
.	16ccc\	.
.	16aa\JJ	.
4.D\ 4.d\	8dd`\L)	.
.	8dd`\ 8ddd`\	.
.	8cc`\ 8ccc`\J	.
=5	=5	=5
4.GG/ 4.G/	8cc\ (8ccc\L	.
.	8b\ 8bb\)	.
.	8a`\ 8aa`\J	.
4.BB\ 4.B\	8g`\ 8gg`\	.
.	(16ff#\LL	.
.	16gg\	.
.	16bb\	.
.	16gg\JJ	.
=6	=6	=6
4.C\ 4.c\	8ee`\)	.
.	(16gg#\LL	.
.	16aa\	.
.	16ccc\	.
.	16aa\JJ	.
4.D\ 4.d\	8dd`\L)	.
.	8dd`\ 8ddd`\	.
.	8cc`\ 8ccc`\J	.
=7	=7	=7
4.GG/ 4.G/	4.b\ 4.bb\	.
*clefG2	*	*
4B/ 4d/	8r	.
.	(16ff#\LL	p
.	16gg\	.
8r	16bb\	.
.	16gg\JJ	.
=8	=8	=8
4c/ 4e/	8ee`\)	.
.	(16gg#\LL	.
.	16aa\	.
8r	16ccc\	.
.	16aa\JJ	.
4d/	8dd`\L)	.
.	8ddd`\	.
8f#`/	8aa`\ 8ccc`\J	.
=9	=9	=9
(8g\L	8aa\ (8ccc\L	.
8b\	8gg\ 8bb\	.
8dd\J)	8ff#\ 8aa\J)	.
4r	8dd`\L	.
.	8ccc`\	.
8g`/	8bb`\J	.
=10	=10	=10
.	(bbq/	.
4cc\ (4ee\	(4aa\)	.
8b\ 8dd\)	8gg\)	.
4r	8dd`\L	.
.	8ddd`\	.
8f#`/	8aa`\ 8ccc`\J	.
=11	=11	=11
8g\L	8aa\ (8ccc\L	.
8b\	8gg\ 8bb\	.
8dd\J	8ff#\ 8aa\J)	.
4r	8dd`\L	.
.	8ccc`\	.
8g`/	8bb`\J	.
=12	=12	=12
*^	*	*
.	.	bbq/	.
4cc\ (4ee\	4.r	(4aa\	.
8b\ 8dd\)	.	8gg\)	.
4.d\	4a/ (4cc/	(16ff#\LL	.
.	.	16dd\	.
.	.	16ff#\	.
.	.	16dd\J	.
.	8g/ 8b/)	8gg`\J)	.
=13	=13	=13	=13
*	*	*^	*
4f#/ (4a/	4.d\	(8ccc/L	16aa\LL	<
.	.	.	16dd\	.
.	.	8ccc/	16aa\	.
.	.	.	16dd\J	.
8g/ 8b/)	.	8bb/J)	8gg\J	.
4a/ (4cc/	4.d\	4.r	(16ff#\LL	.
.	.	.	16dd\	.
.	.	.	16ff#\	.
.	.	.	16dd\J	.
8g/ 8b/)	.	.	8gg`\J)	.
=14	=14	=14	=14	=14
4f#/ (4a/	4.d\	(8ccc/L	16aa\LL	.
.	.	.	16dd\	.
.	.	8ccc/	16aa\	.
.	.	.	16dd\J	.
8g/ 8b/)	.	8bb`/J)	8gg\J	.
4a/ (4cc/	4.d\	4.r	(16ff#\LL	.
.	.	.	16dd\	.
.	.	.	16ff#\	.
.	.	.	16dd\J	.
8g/ 8b/)	.	.	8gg`\J)	.
=15	=15	=15	=15	=15
4f#/ (4a/	4.d\	(8ccc/L	16aa\LL	f
.	.	.	16dd\	.
.	.	8ccc/	16aa\	.
.	.	.	16dd\J	.
8g/)	.	8bb`/J)	8gg\J	.
4f#/ (4a/	4.d\	(8ccc/L	16aa\LL	.
.	.	.	16dd\	.
.	.	8ccc/	16aa\	.
.	.	.	16dd\J	.
8g/)	.	8bb`/J)	8gg\J	.
*v	*v	*	*	*
*	*v	*v	*
=16	=16	=16
8d`/ 8f#`/ 8a`/L	8ff#`\ 8aa`\L	.
8d/ 8f#/ 8a/	8ff#\ 8ddd\	.
8d/ 8f#/ 8a/J	8ff#\ 8ddd\J	.
4d/ 4f#/ 4a/	4ff#\ 4ddd\	.
8r	8r	.
*clefF4	*	*
=17	=17	=17
8r	4ff#`\ 4aa`\	f
(8D/L	.	.
8DD/J)	8r	.
8r	4ff#`\ 4ddd`\	.
(16d\LL	.	.
16c#\J	.	.
8d`\J)	8r	.
=18	=18	=18
8r	4gg`\ 4bb`\	.
8D/L	.	.
8DD/J	8r	.
8r	4cc#`\ 4gg`\	.
(16d\LL	.	.
16c#\J	.	.
8d`\J)	8r	.
=19	=19	=19
8r	4dd`\ 4ff#`\	.
(8D/L	.	.
8DD/J)	8r	.
8r	4ff#\ 4ddd\	.
(16d\LL	.	.
16c#\J	.	.
8d`\J)	8r	.
=20	=20	=20
8r	4gg\ 4bb\	.
8D/L	.	.
8DD/J	8r	.
8r	4cc#\ 4gg\	.
(16d\LL	.	.
16c#\J	.	.
8d`\J)	8r	.
=21	=21	=21
8r	4dd\ 4ff#\	.
8D/L	.	.
8DD/J	8r	.
8r	4ff#\ 4ddd\	.
(16B\LL	.	.
16A#\J	.	.
8B`\J)	8r	.
=22	=22	=22
8r	4dd\ 4ee\	.
(16G\LL	.	.
16F#\J	.	.
8G`\J)	8r	.
8r	4dd\ 4bb\	.
(16G#\LL	.	.
16F#\J	.	.
8G#`\J)	8r	.
=23	=23	=23
(8A\L	(16cc#\LL	f
.	16a\	.
8B\	16dd\	.
.	16a\	.
8c#\J	16ee\	.
.	16a\JJ	.
8d\L	16ff#\LL	.
.	16a\	.
8c#\J)	16ee\	.
.	16a\	.
8r	16aa\	.
.	16a\JJ)	.
=24	=24	=24
(8A\L	(16cc#\LL	p
.	16a\	.
8B\	16dd\	.
.	16a\	.
8c#\J	16ee\	.
.	16a\JJ	.
8d\L	16ff#\LL	.
.	16a\	.
8c#\J)	16ee\	.
.	16a\	.
8r	16aa\	.
.	16a\JJ)	.
=25	=25	=25
(8A\L	(16cc#\LL	f
.	16a\	.
8B\	16dd\	.
.	16a\	.
8c#\J	16ee\	.
.	16a\JJ	.
*clefG2	*	*
8d/L	16ff#\LL	.
.	16a\	.
8e/	16ggn\	.
.	16a\	.
8f#/J)	16aa\	.
.	16a\JJ)	.
=26	=26	=26
(4.g/	(16bb\LL	.
.	16gg\	.
.	16ff#\	.
.	16ee\	.
.	16dd#\	.
.	16ee\JJ	.
4.f#/	16aa\LL	.
.	16ff#\	.
.	16ee\	.
.	16ddn\	.
.	16cc#\	.
.	16dd\JJ)	.
=27	=27	=27
4.e/) 4.g#/ 4.b/	16ddd\LL	.
.	16eee\	.
.	16ddd\	.
.	16ccc#\	.
.	16bb\	.
.	16aa\JJ	.
4r	16gg#\LL	.
.	16ff#\	.
.	16ee\	.
.	16dd\	.
8r	16cc#\	.
.	16b\JJ	.
=28	=28	=28
4.A/ 4.c#/ 4.e/ 4.gn/	(16ggn\LL	.
.	16aa\	.
.	16gg\	.
.	16ff#\	.
.	16ee\	.
.	16dd\JJ	.
4r	16cc#/LL	.
.	16b/	.
.	16a/	.
.	16g/	.
8r	16f#/	.
.	16e/JJ	.
*clefF4	*	*
=29	=29	=29
(8D\L	(16f#/LL)	.
.	16d/	.
8E\	16g/	.
.	16d/	.
8F#\J	16a/	.
.	16d/JJ	.
8G\L	16b/LL	.
.	16d/	.
8A\	16cc#/	.
.	16d/JJ	.
8B\J	8dd`\)	.
=30	=30	=30
4.A\)	[4.d/ [4.f#/	p
4.AA/	8d/] 8f#/L]	.
.	8e/ 8g/	.
.	8c#`/ 8e`/J	.
=31	=31	=31
*^	*	*
4.r	4D\	4d/	.
.	8r	8dd'\	.
[4.d/	4G\	(8e/L	.
.	.	8g/	.
.	8A\	8f#/J	.
=32	=32	=32	=32
4.d/]	4B\	8a/L	.
.	.	8g/)	.
.	8A\	8f#`/J	.
[4.d/	4G\	(8e/L	.
.	.	8b/	.
.	8A\	8f#/J	.
=33	=33	=33	=33
4.d/]	4B\	8a/L	.
.	.	8g/)	.
.	8A\	8f#`/J	.
[4.d/	4G#\	(8e/L	.
.	.	8dd/	.
.	8A\	8f#/J	.
=34	=34	=34	=34
4.d/]	4.B\	8a/L	<
.	.	8g#/)	.
.	.	8b/J	.
(4.e/	4.c#\	8b\L	.
.	.	8a\	.
.	.	[8ggn\J	.
=35	=35	=35	=35
4.d/)	4.d\	16gg\LL]	f
.	.	16ff#\	.
.	.	16aa\	.
.	.	16gg\	.
.	.	16ff#\	.
.	.	16ee\JJ	.
4.r	4.F#\ (4.A\	16dd/LL	.
.	.	16cc#/	.
.	.	16b/	.
.	.	16a/	.
.	.	16g/	.
.	.	16f#/JJ	.
*v	*v	*	*
=36	=36	=36
4G\ 4B\)	8e\L	>
.	8bb`\ 8ddd`\	.
8r	8aa`\ 8ccc#`\J	.
4r	8gg`\ 8bb`\L	.
.	8ff#`\ 8aa`\	.
8r	8ee`\ 8gg`\J	.
=37	=37	=37
4.A\ 4.d\	8ff#\L	mf
.	8aa\	.
.	8dd`\J	.
4.A\ 4.c#\	(8ee\L	.
.	8gg\)	.
.	8cc#`\J	.
=38	=38	=38
8BB'\ 8B'\L	(16dd\LL	f
.	16ee\	.
8AA'\ 8A'\	16cc#\	.
.	16dd\J	.
8GG'\ 8G'\J	8b`\J)	.
8FF#'/ 8F#'/L	(16a/LL	.
.	16b/	.
8EE'/ 8E'/	16g/	.
.	16a/J	.
8DD'/ 8D'/J	8f#`/J)	.
=39	=39	=39
2.GG/ 2.G/	8e`/L	<
.	8g`/	.
.	8b`/J	.
.	8ee`\L	.
.	8gg\	.
.	8bb`\J	.
=40	=40	=40
4.A\ 4.f#\	(8aa\L	.
.	8ff#\	.
.	8dd\J)	.
4.A\ 4.e\	(8gg\L	.
.	8ee\	.
.	8cc#\J)	.
=41	=41	=41
(8d\L	8dd/L	p
8A\	8a/	.
8F#\J)	8f#/J	.
(8B\L	(8b/L	.
8G\	8g/	.
8E\J)	8e/J)	.
=42	=42	=42
8A\L	(8a/L	.
8F#\	8f#/	.
8D\J	8d/J	.
8AA/L	8A/L	.
8BB/	8B/	.
8C#/J	8c#/J	.
=43	=43	=43
4DD/ 4D/	4d/)	.
8r	8r	.
4r	4r	.
8r	8r	.
=44:|!|:	=44:|!|:	=44:|!|:
*>B	*>B	*>B
*clefG2	*	*
4d`/ 4f#`/	8r	.
.	(8ddd\L	f
8r	8dd\J)	.
4g`/ 4b`/	8r	.
.	(16ddd\LL	.
.	16eee\J	.
8r	8ddd`\J)	.
=45	=45	=45
4f#`/ 4a`/	8r	.
.	(8ddd\L	.
8r	8dd\J)	.
4e`/ 4g`/	8r	.
.	(16cccn\LL	.
.	16ddd\J	.
8r	8ccc`\J)	.
=46	=46	=46
4d#`/ 4f#`/	8r	.
.	8bb\L	.
8r	8b\J	.
4B`/ 4d#`/	8r	.
.	(16aa\LL	.
.	16bb\J	.
8r	8aa`\J)	.
=47	=47	=47
8r	4ee`\ 4gg`\	.
*clefF4	*	*
8E/L	.	.
8EE/J	8r	.
8r	4aa`\ 4ccc`\	.
(16e\LL	.	.
16f#\J	.	.
8e`\J)	8r	.
=48	=48	=48
8r	4gg`\ 4bb`\	.
8E/L	.	.
8EE/J	8r	.
8r	4ff#`\ 4aa`\	.
(16e\LL	.	.
16f#\J	.	.
8e`\J)	8r	.
=49	=49	=49
8r	4ee`\ 4gg`\	.
8E/L	.	.
8EE/J	8r	.
8r	4aa`\ 4ccc`\	.
(16e\LL	.	.
16f#\J	.	.
8e`\J)	8r	.
=50	=50	=50
8r	4gg`\ 4bb`\	.
8E/L	.	.
8EE/J	8r	.
8r	4ff#`\ 4aa`\	.
(16e\LL	.	.
16f#\J	.	.
8e`\J)	8r	.
=51	=51	=51
*	*^	*
8r	4.r	4ee`\ 4gg`\	.
8E/L	.	.	.
8EE/J	.	8r	.
8r	4.gg/	8r	mf
(8e\L	.	16cc\LL	.
.	.	16dd\J	.
8E\J)	.	8cc\J	.
=52	=52	=52	=52
8r	4.ffn/	(8cc\L	.
8d\L	.	8b\)	.
8D\J	.	8b\J	.
8r	4.ee/	8r	.
(8c\L	.	(16a\LL	.
.	.	16b\J	.
8C\J)	.	[8a\J)	.
=53	=53	=53	=53
8r	4.dd/	(8a\L]	.
8B\L	.	8g#\)	.
8BB\J	.	8g#`\J	.
4.A\ (4.c\	8cc`/L	4.r	.
.	(16fn/L	.	.
.	16gn/J	.	.
.	8f`/J)	.	.
*	*v	*v	*
=54	=54	=54
4.G#\ 4.B\)	8r	.
.	8e/L	.
.	8ee/J	.
4.Gn\ (4.B\	8r	.
.	16e/LL	.
.	16f#/J	.
.	8e`/J	.
=55	=55	=55
4.F#\ 4.A\)	8r	.
.	8d#/L	.
.	8dd#/J	.
4.E\ (4.G\	8r	.
.	16c/LL	.
.	16dn/J	.
.	8c`/J	.
=56	=56	=56
4.D#\ 4.F#\)	8r	.
.	8A/L	<
.	8b/J	.
4.BB/ 4.D#/	8r	.
.	16a/LL	.
.	16b/J	.
.	8a`/J	.
=57	=57	=57
(8E\L	(16g/LL	f
.	16e/	.
8F#\	16a/	.
.	16e/	.
8G\J	16b/	.
.	16e/JJ	.
8A\L	16cc/LL	.
.	16e/	.
8G\J)	16b/	.
.	16e/	.
8r	16ee/	.
.	16e/JJ)	.
=58	=58	=58
(8E\L	(16g/LL	p
.	16e/	.
8F#\	16a/	.
.	16e/	.
8G\J	16b/	.
.	16e/JJ	.
8A\L	16cc/LL	.
.	16e/	.
8G\J)	16b/	.
.	16e/JJ	.
8r	8ee`\)	.
=59	=59	=59
(8B\L	(16dd#\LL	f
.	16b\	.
8c#\	16ee\	.
.	16b\	.
8d#\J	16ff#\	.
.	16b\JJ	.
8e\L	16gg\LL	.
.	16b\	.
8d#\J)	16ff#\	.
.	16b\	.
8r	16bb\	.
.	16b\JJ)	.
=60	=60	=60
(8BB/L	(16dd#\LL	p
.	16b\	.
8C#/	16ee\	.
.	16b\	.
8D#/J	16ff#\	.
.	16b\JJ	.
8E\L	16gg\LL	.
.	16b\	.
8F#\	16aa\	.
.	16b\JJ	.
8G\J)	8bb`\)	.
=61	=61	=61
8A\L	8ccn\ (8bb\L	mf
8B\	8ddn\ 8aa\	.
8cn\J	[8ee\ 8gg\J	.
8Dn\L	8ee\] 8ff#\L	.
8E\	8dd\ 8gg\	.
8F#\J	8cc\ [8aa\J	.
=62	=62	=62
8G\L	8b\ 8aa\L]	.
8A\	8cc\ 8gg\	.
8B\J	[8dd\ 8ff#\J	.
8C\L	8dd\] 8ee\L	.
8D\	8cc\ 8ff#\	.
8E\J	8b\ [8gg\J	.
=63	=63	=63
8F#\L	8a\ 8gg\L]	.
8G\	8b\ 8ff#\	.
8A\J	[8cc\ 8ee\J	.
8BB/L	8cc\] 8dd#\L	.
8C#/	8b\ 8ee\	.
8D#/J	8a\ 8ff#\J)	.
=64	=64	=64
(16EE/LL	4.g\ 4.ff#\	f
16E/	.	.
16D#/	.	.
16E/	.	.
16D#/	.	.
16E/JJ	.	.
16Cn\LL	4.g\ 4.ee\	.
16c\	.	.
16B\	.	.
16c\	.	.
16B\	.	.
16c\JJ)	.	.
=65	=65	=65
(16AA\LL	4.fn\ 4.ee\	.
16A\	.	.
16G#\	.	.
16A\	.	.
16G#\	.	.
16A\JJ	.	.
16BB\LL	4.f/ 4.ddn/	.
16B\	.	.
16A#\	.	.
16B\	.	.
16A#\	.	.
16B\JJ)	.	.
=66	=66	=66
*^	*	*
8r	4.GG#\	(16e/LL	.
.	.	16b/	.
8G#/L	.	16dd/	.
.	.	16b/	.
8G#/J	.	16dd/	.
.	.	16b/JJ	.
8r	4.AA\	16e/LL	.
.	.	16a/	.
8A/L	.	16cc/	.
.	.	16a/	.
8A/J	.	16cc/	.
.	.	16a/JJ)	.
=67	=67	=67	=67
8r	4.FF#\	(16d/LL	.
.	.	16a/	.
8F#/L	.	16cc/	.
.	.	16a/	.
8F#/J	.	16cc/	.
.	.	16a/JJ	.
8r	4.GGn\	16d/LL	.
.	.	16g/	.
8Gn/L	.	16b/	.
.	.	16g/	.
8G/J	.	16b/	.
.	.	16g/JJ	.
*v	*v	*	*
=68	=68	=68
8DD/ 8D/L	8f#`/) 8a`/L	.
8DD/ 8D/	8f#/ 8dd/	.
8DD/ 8D/J	8f#/ 8dd/J	.
4DD/ 4D/	4f#/ 4dd/	.
8r	8r	.
=69	=69	=69
4G`\ 4B-`\	8r	.
.	8gg\L	.
8r	8g\J	.
4B-`\ 4d`\	8r	.
.	(16gg\LL	.
.	16aa\J	.
8r	8gg`\J)	.
=70	=70	=70
*	*^	*
4c`\ 4e-`\	4.r	8r	.
.	.	(8gg\ 8aa\L	.
8r	.	8g\ 8a\J)	.
4d`\	8r	8r	.
.	(16aa/LL	8ff#\L	.
.	16bb-/J	.	.
8r	8aa/J)	8ff#\J	.
*	*v	*v	*
=71	=71	=71
4G`\	8r	.
.	8gg\ 8bb-\L	.
8r	8gg\ 8bb-\J	.
(8g\L	8r	.
8G\J)	8bb-`\ 8ddd`\L	.
8r	8b-`\ 8dd`\J	.
=72	=72	=72
4c`\	8r	.
.	16ccc\ 16eee-\LL	.
.	16bbn\ 16ddd\J	.
8r	8ccc`\ 8eee-`\J	.
(8fn\L	8r	.
8Fn\J)	8aa`\ 8ccc`\L	.
8r	8a`\ 8cc`\J	.
=73	=73	=73
4B-`\	8r	.
.	16bb-\ 16ddd\LL	.
.	16aa\ (16ccc#\J	.
8r	8bb-`\ 8ddd`\J)	.
(8e-\L	8r	.
8E-\J)	8gg`\ 8bb-`\L	.
8r	8g`\ 8b-`\J	.
=74	=74	=74
4A\	8r	.
.	16aa\ (16cccn\LL	.
.	16gg\ 16bb-\J	.
8r	8aa`\ 8ccc`\J)	.
(8e\L	8r	.
8D\J)	8ff#`\ 8aa`\L	.
8r	8f#\ 8a\J	.
=75	=75	=75
*	*^	*
4G\	8r	8r	.
.	8bb-/L	(16gg\LL	.
.	.	16dd\J	.
8r	8bb-/J	8gg\J)	.
4fn\	8r	8r	.
.	(8bbn/L	16aa-\LL	.
.	.	16dd\J	.
8r	8bb/J	8aa-`\J)	.
=76	=76	=76	=76
4en\	8r	8r	.
.	8ccc/L	(16gg\LL	.
.	.	16cc\J)	.
8r	8ccc/J	8gg`\J	.
4e-\	8r	8r	.
.	8ccc#/L	16bb-\LL	.
.	.	16gg\J	.
8r	8ccc#/J	8bb-\J	.
=77	=77	=77	=77
*^	*	*	*
4.r	4d\	8r	8r	.
.	.	8ddd/L	(16ff#\LL	.
.	.	.	16dd\J	.
.	8r	8ddd/J	(8ff#`\J)	.
4.F#/	[4.D\	4.r	16dd\LL	.
.	.	.	16ff#\	.
.	.	.	16ddd\	.
.	.	.	16ff#\	.
.	.	.	16ddd\	.
.	.	.	16ff#\JJ	.
*	*	*v	*v	*
=78	=78	=78	=78
4.G/	2.D\]	16ee\LL	.
.	.	16gg\	.
.	.	16ccc#\	.
.	.	16gg\	.
.	.	16ccc#\	.
.	.	16gg\JJ	.
4.A/	.	16dd\LL	.
.	.	16ff#\	.
.	.	16cccn\	.
.	.	16ff#\	.
.	.	16ccc\	.
.	.	16ff#\JJ	.
*v	*v	*	*
=79	=79	=79
4G`\ 4Bn`\	8gg'\)	p
.	8gg\L	.
8r	8g\J	.
4c`\ 4e`\	8r	.
.	(16gg\LL	.
.	16aa\J	.
8r	8gg`\J)	.
=80	=80	=80
4B`\ 4d`\	8r	.
.	8gg\L	.
8r	8g\J	.
4A`\ 4c`\	8r	.
.	(16gg\LL	.
.	16aa\J	.
8r	8gg`\J)	.
=81	=81	=81
4G`\ 4B`\	8r	.
.	8gg\L	.
8r	8g\J	.
4.BB\ 4.B\	8r	.
.	(16ff#\LL	f
.	16gg\	.
.	16bb\	.
.	16gg\JJ	.
=82	=82	=82
4.C\ 4.c\	8ee`\)	.
.	(16gg#\LL	.
.	16aa\	.
.	16ccc\	.
.	16aa\JJ	.
4.D\ 4.d\	8dd`\L	.
.	8dd`\ 8ddd`\)	.
.	8cc`\ 8ccc`\J	.
=83	=83	=83
4.GG/ 4.G/	8cc\ (8ccc\L	.
.	8b\ 8bb\)	.
.	8a\ 8aa\J	.
4.BB\ 4.B\	8g`\ (8gg`\	.
.	16ff#\LL	.
.	16gg\	.
.	16bb\	.
.	16gg\JJ	.
=84	=84	=84
4.C\ 4.c\	(8ee`\)	.
.	16gg#\LL	.
.	16aa\	.
.	16ccc\	.
.	16aa\JJ	.
4.D\ 4.d\	8dd`\L	.
.	8dd`\ 8ddd`\)	.
.	8cc`\ 8ccc`\J	.
=85	=85	=85
4.GG/ 4.G/	4.b\ 4.bb\	.
*clefG2	*	*
4B/ 4d/	8r	.
.	(16ff#\LL	p
.	16gg\	.
8r	16bb\	.
.	16gg\JJ	.
=86	=86	=86
4c/ 4e/	8ee`\)	.
.	(16gg#\LL	.
.	16aa\	.
8r	16ccc\	.
.	16aa\JJ	.
4d/	8dd`\L	.
.	8ddd`\)	.
8f#`/	8aa`\ 8ccc`\J	.
=87	=87	=87
8g\L	8aa\ (8ccc\L	.
8b\	8gg\ 8bb\	.
8dd\J	8ff#\ 8aa\J)	.
4r	8dd`\L	.
.	8ccc`\	.
8g`/	8bb`\J	.
=88	=88	=88
.	(bbq/	.
4cc\ (4ee\	(4aa\)	.
8b\ 8dd\)	8gg\)	.
4r	8dd`\L	.
.	8ddd`\	.
8f#`/	8aa`\ 8ccc`\J	.
=89	=89	=89
8g\L	8aa\ (8ccc\L	.
(8b\	8gg\ 8bb\	.
8dd\J)	8ff#\ 8aa\J)	.
4r	8dd`\L	.
.	8ccc`\	.
8g`/	8bb`\J	.
=90	=90	=90
*^	*	*
.	.	(bbq/	.
4.r	4cc\ (4ee\	(4aa\)	.
.	8b\ 8dd\)	8gg\)	.
4a/ (4cc/	4.d\	(16ff#\LL	.
.	.	16dd\	mf
.	.	16ff#\	.
.	.	16dd\J	.
8g/ 8b/)	.	8gg`\J)	.
=91	=91	=91	=91
*	*	*^	*
4f#/ (4a/	4.d\	(8ccc/L	16aa\LL	.
.	.	.	16dd\	.
.	.	8ccc/	16aa\	.
.	.	.	16dd\J	.
8g/ 8b/)	.	8bb/J)	8gg\J	.
4a/ (4cc/	4.d\	4.r	(16ff#\LL	.
.	.	.	16dd\	.
.	.	.	16ff#\	.
.	.	.	16dd\J	.
8g/ 8b/)	.	.	8gg`\J)	.
=92	=92	=92	=92	=92
4f#/ (4a/	4.d\	(8ccc/L	16aa\LL	.
.	.	.	16dd\	.
.	.	8ccc/	16aa\	.
.	.	.	16dd\J	.
8g/ 8b/)	.	8bb`/J)	8gg\J	.
4a/ (4cc/	4.d\	4.r	(16ff#\LL	.
.	.	.	16dd\	.
.	.	.	16ff#\	.
.	.	.	16dd\J	.
8g/ 8b/)	.	.	8gg`\J)	.
=93	=93	=93	=93	=93
4f#/ (4a/	4.d\	(8ccc/L	16aa\LL	f
.	.	.	16dd\	.
.	.	8ccc/	16aa\	.
.	.	.	16dd\J	.
8g/)	.	8bb`/J)	8gg\J	.
4f#/ (4a/	4.d\	(8ccc/L	16aa\LL	.
.	.	.	16dd\	.
.	.	8ccc/	16aa\	.
.	.	.	16dd\J	.
8g/)	.	8bb`/J)	8gg\J	.
*v	*v	*	*	*
*	*v	*v	*
=94	=94	=94
8d`/ 8f#`/ 8a`/L	8ff#`\ 8aa`\L	.
8d/ 8f#/ 8a/	8ff#\ 8ddd\	.
8d/ 8f#/ 8a/J	8ff#\ 8ddd\J	.
4d/ 4f#/ 4a/	4ff#\ 4ddd\	.
8r	8r	.
=95	=95	=95
8r	4B`/ 4g`/	.
*clefF4	*	*
(8GG/L	.	.
8GGG/J)	8r	.
8r	4e`/ 4cc`/	.
(16G\LL	.	.
16F#\J	.	.
8G`\J)	8r	.
=96	=96	=96
8r	4d`/ 4b`/	.
(8GG/L	.	.
8GGG/J)	8r	.
8r	4c`/ 4f#`/	.
(16G\LL	.	.
16F#\J	.	.
8G`\J)	8r	.
=97	=97	=97
8r	4B`/ 4g`/	.
(8GG/L	.	.
8GGG/J)	8r	.
8r	4e/ 4cc/	.
(16G\LL	.	.
16F#\J	.	.
8G`\J)	8r	.
=98	=98	=98
8r	4d/ 4b/	.
(8GG/L	.	.
8GGG/J)	8r	.
8r	4c/ 4f#/	.
(16G\LL	.	.
16F#\J	.	.
8G`\J)	8r	.
=99	=99	=99
8r	4B/ 4g/	.
8GG/L	.	.
8GGG/J	8r	.
8r	4g/ 4b/	.
(16E\LL	.	.
16D#\J	.	.
8E`\J)	8r	.
=100	=100	=100
8r	4g/ 4a/	.
(16C/LL	.	.
16BB/J	.	.
8C`/J)	8r	.
8r	4g\ 4ee\	.
(16C#/LL	.	.
16BB/J	.	.
8C#`/J)	8r	.
=101	=101	=101
(8D\L	(16f#/LL	.
.	16d/	.
8E\	16g/	.
.	16d/	.
8F#\J	16a/	.
.	16d/JJ	.
8G\L	16b/LL	.
.	16d/	.
8F#\J)	16a/	.
.	16d/	.
8r	16dd/	.
.	16d/JJ)	.
=102	=102	=102
(8D\L	(16f#/LL	p
.	16d/	.
8E\	16g/	.
.	16d/	.
8F#\J	16a/	.
.	16d/JJ	.
8G\L	16b/LL	.
.	16d/	.
8F#\J)	16a/	.
.	16d/	.
8r	16dd/	.
.	16d/JJ)	.
=103	=103	=103
(8D\L	(16f#/LL	f
.	16d/	.
8E\	16g/	.
.	16d/	.
8F#\J	16a/	.
.	16d/JJ	.
8G\L	16b/LL	.
.	16d/	.
8A\	16ccn/	.
.	16d/	.
8B\J)	16dd/	.
.	16d/JJ)	.
=104	=104	=104
(4.c\	(16ee/LL	.
.	16cc/	.
.	16b/	.
.	16a/	.
.	16g#/	.
.	16a/JJ	.
4.B\	16dd/LL	.
.	16b/	.
.	16a/	.
.	16gn/	.
.	16f#/	.
.	16g/JJ)	.
=105	=105	=105
4.A\ 4.c#\ 4.e\)	16gg\LL	.
.	16aa\	.
.	16gg\	.
.	16ff#\	.
.	16ee\	.
.	16dd\JJ	.
8r	16cc#\LL	.
.	16b\	.
16r	16a\JJ	.
*clefG2	*	*
16g/LL	16r	.
16f#/	8r	.
16e/JJ	.	.
=106	=106	=106
4.d/ 4.f#/ 4.a/	(16cccn\LL	.
.	16ddd\	.
.	16ccc\	.
.	16bb\	.
.	16aa\	.
.	16gg\JJ	.
4r	16ff#\LL	.
.	16ee\	.
.	16dd\	.
.	16cc\	.
8r	16b\	.
.	16a\JJ	.
*clefF4	*	*
=107	=107	=107
(8G\L	(16b\LL)	.
.	16g\	.
8A\	16cc\	.
.	16g\	.
8B\J	16dd\	.
.	16g\JJ	.
8c\L	16ee\LL	.
.	16g\	.
8d\	16ff#\	.
.	16g\JJ	.
8e\J	8gg`\)	.
=108	=108	=108
4.d\)	[4.g/ [4.b/	p
4.D\	8g/] 8b/L]	.
.	8a/ 8cc/	.
.	8f#`/ 8a`/J	.
=109	=109	=109
*^	*	*
4.r	4G\	4g/	.
.	8r	8gg'\	.
*v	*v	*	*
*clefG2	*	*
*^	*	*
[4.g/	4c\	(8a\L	.
.	.	8cc\	.
.	8d\	8b\J	.
=110	=110	=110	=110
4.g/]	4e\	8dd\L	.
.	.	8cc\)	.
.	8d\	(8b`\J	.
[4.g/	4c\	8a\L	.
.	.	8ee\	.
.	8d\	8b\J	.
=111	=111	=111	=111
4.g/]	4e\	8dd\L	.
.	.	8cc\)	.
.	8d\	8b`\J	.
[4.g/	4c#\	(8a\L	.
.	.	8gg\	.
.	8d\	8b\J	.
=112	=112	=112	=112
4.g/]	4.e\	8dd\L	<
.	.	8cc#\)	.
.	.	[8ee\J	.
4.a/	4.f#\	(8ee\L]	.
.	.	(8dd\)	.
.	.	8cccn\J	.
=113	=113	=113	=113
4.g/	4.g\	(16ccc\LL)	f
.	.	16bb\	.
.	.	16ddd\	.
.	.	16ccc\	.
.	.	16bb\	.
.	.	16aa\JJ	.
4.B/ 4.d/	4.r	16gg\LL	.
.	.	16ff#\	.
.	.	16ee\	.
.	.	16dd\	.
.	.	16cc\	.
.	.	16b\JJ	.
*v	*v	*	*
=114	=114	=114
4c/ 4e/	8a`\L)	>
.	8bb\ (8ddd#\	.
8r	8ccc\ 8eee\J)	.
4r	8ccc\ (8eee\L	.
.	8bb\ 8dddn\	.
8r	8aa\ 8ccc\J)	.
=115	=115	=115
4.d/ 4.g/	(8bb\L	mf
.	8ddd\)	.
.	8gg`\J	.
4.d/ 4.f#/	(8aa\L	.
.	8ccc\)	.
.	8ff#`\J	.
*clefF4	*	*
=116	=116	=116
8E\ 8e\L	(16gg\LL	f
.	16aa\	.
8D\ 8d\	16ff#\	.
.	16gg\J	.
8C\ 8c\J	8ee`\J)	.
8BB\ 8B\L	(16dd\LL	.
.	16ee\	.
8AA\ 8A\	16cc\	.
.	16dd\J	.
8GG\ 8G\J	8b`\J)	.
=117	=117	=117
2.C\ 2.c\	8a`\L	<
.	8cc`\	.
.	8ee`\J	.
.	(8aa`\L	.
.	8ccc\	.
.	8eee`\J)	.
*clefG2	*	*
=118	=118	=118
4.d/ 4.b/	(8ddd\L	>
.	8bb\	.
.	8gg\J	.
4.d/ 4.a/	(8ccc\L)	.
.	8aa\	.
.	8ff#\J)	.
=119	=119	=119
(8g/L	(8gg\L	p
8d/	8dd\	.
8B/J)	8b\J)	.
(8e/L	8ee\L	.
8c/	8cc\	.
8A/J)	8a\J	.
*clefF4	*	*
=120	=120	=120
8d\L	(8dd\L	.
8B\	8b\	.
8G\J	8g\J	.
8D\L	8d/L	.
8E\	8e/	.
8F#\J	8f#/J	.
=121	=121	=121
4GG/ 4G/	4g/)	.
8r	8r	.
4r	4r	.
8r	8r	.
==:|!	==:|!	==:|!
*-	*-	*-
!!!ENC: Craig Stuart Sapp
!!!END: 2009/08/26/
